plugins/backend/ttrss/icons/64x64/places/feed-service-ttrss-symbolic.svg

<?xml version="1.0" encoding="UTF-8" standalone="no"?>
<!-- Created with Inkscape (http://www.inkscape.org/) -->

<svg
   xmlns:dc="http://purl.org/dc/elements/1.1/"
   xmlns:cc="http://creativecommons.org/ns#"
   xmlns:rdf="http://www.w3.org/1999/02/22-rdf-syntax-ns#"
   xmlns:svg="http://www.w3.org/2000/svg"
   xmlns="http://www.w3.org/2000/svg"
   xmlns:sodipodi="http://sodipodi.sourceforge.net/DTD/sodipodi-0.dtd"
   xmlns:inkscape="http://www.inkscape.org/namespaces/inkscape"
   width="64"
   height="64"
   id="svg3790"
   version="1.1"
   inkscape:version="0.91 r13725"
   sodipodi:docname="feed-service-ttrss-symbolic.svg">
  <defs
     id="defs3792" />
  <sodipodi:namedview
     id="base"
     pagecolor="#ffffff"
     bordercolor="#666666"
     borderopacity="1.0"
     inkscape:pageopacity="0.0"
     inkscape:pageshadow="2"
     inkscape:zoom="16"
     inkscape:cx="11.568379"
     inkscape:cy="25.586099"
     inkscape:document-units="px"
     inkscape:current-layer="layer2"
     showgrid="true"
     inkscape:window-width="1920"
     inkscape:window-height="1145"
     inkscape:window-x="0"
     inkscape:window-y="27"
     inkscape:window-maximized="1"
     showguides="false">
    <inkscape:grid
       type="xygrid"
       id="grid4177" />
  </sodipodi:namedview>
  <metadata
     id="metadata3795">
    <rdf:RDF>
      <cc:Work
         rdf:about="">
        <dc:format>image/svg+xml</dc:format>
        <dc:type
           rdf:resource="http://purl.org/dc/dcmitype/StillImage" />
        <dc:title />
      </cc:Work>
    </rdf:RDF>
  </metadata>
  <g
     inkscape:groupmode="layer"
     id="layer2"
     inkscape:label="Layer 2"
     style="display:inline">
    <path
       transform="translate(0,-988.36218)"
       style="fill:#bebebe;fill-opacity:1;stroke:none"
       d="m 0,988.73718 0,12.71872 a 50.910164,50.911174 0 0 1 22.34375,5.1875 l 2.125,-8.34372 6.65625,-1.40625 A 63.637705,63.638967 0 0 0 0,988.73718 Z m 38.375,12.93752 -1.5,6.0625 8.46875,0 a 63.637705,63.638967 0 0 0 -6.96875,-6.0625 z m 9.15625,8.5 -1.875,6.7187 -9.1875,0 a 50.910164,50.911174 0 0 1 14.4375,35.4688 l 12.71875,0 a 63.637705,63.638967 0 0 0 -16.09375,-42.1875 z"
       id="path3812"
       inkscape:connector-curvature="0" />
    <path
       transform="translate(0,-988.36218)"
       inkscape:connector-curvature="0"
       style="fill:#bebebe;fill-opacity:1;stroke:none"
       d="m 0,1010.1747 0,12.375 a 29.818811,29.819401 0 0 1 17.03125,5.375 l 2.75,-11.0313 -7.375,0 1.25,-4.4062 A 42.182708,42.183543 0 0 0 0,1010.1747 Z m 32.34375,15.1875 -1.65625,6.5937 c -0.06215,0.3409 -0.156775,0.7004 -0.25,1.0938 l -0.28125,1.1875 c -0.06215,0.3933 -0.125354,0.7892 -0.1875,1.1562 -0.06215,0.341 -0.09375,0.6078 -0.09375,0.8438 0,1.0488 0.316007,1.8142 0.9375,2.3125 0.621491,0.4982 1.664318,0.75 3.09375,0.75 0.372895,0 0.815657,-0.015 1.375,-0.094 0.590419,-0.079 1.190833,-0.1813 1.78125,-0.3125 0.621493,-0.131 1.221907,-0.2751 1.78125,-0.4062 0.350629,-0.099 0.578597,-0.172 0.84375,-0.25 a 42.182708,42.183543 0 0 0 -7.34375,-12.875 z m 7.625,13.6562 -2.0625,8.2813 c -0.559343,0.1835 -1.25456,0.3789 -2.0625,0.5625 -0.807939,0.1835 -1.692937,0.3426 -2.65625,0.5 -0.963313,0.1573 -1.974714,0.27 -3.03125,0.375 -0.199195,0.02 -0.395727,0.046 -0.59375,0.062 a 29.818811,29.819401 0 0 1 0.25,3.5625 l 12.375,0 a 42.182708,42.183543 0 0 0 -2.21875,-13.3438 z"
       id="path3802" />
    <path
       transform="translate(0,-988.36218)"
       inkscape:connector-curvature="0"
       style="fill:#bebebe;fill-opacity:1;stroke:none"
       d="m 8.71875,1034.8934 c -4.8200412,0 -8.71875,3.9299 -8.71875,8.75 0,4.8202 3.8987088,8.7188 8.71875,8.7188 4.073492,0 7.506542,-2.7886 8.46875,-6.5625 -0.811488,-0.862 -1.442993,-1.8342 -1.8125,-2.9375 -0.372896,-1.2062 -0.53125,-2.5215 -0.53125,-3.9375 0,-0.4107 0.03421,-0.9012 0.09375,-1.4375 -1.581747,-1.5977 -3.792918,-2.5938 -6.21875,-2.5938 z"
       id="ellipse3800" />
    <path
       style="display:inline;opacity:1;fill:#bebebe;fill-opacity:1;stroke:none;stroke-width:2;stroke-linejoin:miter;stroke-miterlimit:4;stroke-dasharray:none;stroke-dashoffset:0;stroke-opacity:1"
       d="m 24.728552,61.419759 c -0.145841,-0.02031 -0.705577,-0.0973 -1.243858,-0.171085 -2.954571,-0.404999 -5.917112,-1.783146 -7.254178,-3.374576 -1.630559,-1.940757 -2.333091,-4.088387 -2.335912,-7.140849 -0.0021,-2.222846 0.146707,-3.036416 1.721235,-9.413359 2.160489,-8.750124 2.881335,-11.694133 2.881335,-11.767678 0,-0.042 -1.650653,-0.07636 -3.668117,-0.07636 -2.017464,0 -3.668116,-0.02959 -3.668116,-0.06576 0,-0.03617 0.701707,-2.522092 1.55935,-5.524271 l 1.55935,-5.458508 3.507009,0 3.507009,0 1.193545,-4.662485 1.193544,-4.6624853 2.645223,-0.5497701 C 37.340718,6.263316 41.259637,5.4550246 41.275466,5.4691792 c 0.01006,0.009 -0.596286,2.5205655 -1.347437,5.5812628 -0.751151,3.060698 -1.460351,5.951114 -1.576,6.423146 -0.115648,0.472033 -0.188787,0.879724 -0.162531,0.905981 0.02626,0.02626 2.566808,0.04774 5.645669,0.04774 3.07886,0 5.597547,0.02983 5.597082,0.06629 -7.95e-4,0.06469 -0.438245,1.65027 -2.182372,7.910757 l -0.855698,3.071495 -5.546393,0 c -3.050516,0 -5.565931,0.03161 -5.589811,0.07025 -0.0635,0.102751 -3.348472,13.140818 -3.763511,14.937411 -0.780415,3.378202 -0.804342,4.185643 -0.143617,4.846368 0.997089,0.997089 4.12997,0.777467 8.845469,-0.620092 0.729095,-0.216086 1.3294,-0.386165 1.334011,-0.377955 0.0046,0.0082 -0.624955,2.570155 -1.399034,5.693209 l -1.407418,5.678281 -0.722089,0.219118 c -1.626676,0.493615 -3.924694,0.955948 -6.423137,1.292255 -1.060262,0.142719 -1.959557,0.190924 -3.977476,0.213204 -1.434101,0.01583 -2.72678,0.01217 -2.872621,-0.0081 l 0,-2e-6 z m 5.991575,-2.076135 c 2.192681,-0.24323 5.376021,-0.824854 6.16499,-1.126396 0.203395,-0.07774 0.274998,-0.312755 1.082345,-3.55252 0.475498,-1.908102 0.851227,-3.48259 0.834954,-3.498864 -0.01627,-0.01627 -0.688122,0.105106 -1.492997,0.269731 -1.982988,0.405592 -3.034285,0.522573 -4.069364,0.452809 C 30.74066,51.719926 29.36251,50.71118 29.00527,48.788706 28.749726,47.413505 28.95459,46.424986 31.872039,34.955929 l 1.8774,-7.380427 5.581844,-0.02275 5.581844,-0.02276 0.133926,-0.463381 c 0.460577,-1.593587 1.82278,-6.528998 1.82278,-6.604129 0,-0.06097 -1.8391,-0.09063 -5.618616,-0.09063 -5.309034,0 -5.616173,-0.0085 -5.574265,-0.15468 C 35.954116,19.250545 38.65686,8.0635521 38.62172,8.0284118 38.58283,7.9895188 25.280363,10.713191 25.253407,10.765566 c -0.0046,0.0089 -0.558907,2.173485 -1.231858,4.810228 l -1.223547,4.794079 -3.541161,0.02309 -3.541161,0.02309 -0.993271,3.49134 c -0.546298,1.920237 -0.994381,3.521171 -0.995738,3.557631 -0.0014,0.03646 1.628297,0.06629 3.621454,0.06629 2.163921,0 3.623922,0.03297 3.623922,0.08185 0,0.04501 -0.996419,4.111984 -2.214265,9.037708 -1.217846,4.925724 -2.310199,9.382901 -2.427453,9.904838 -0.340065,1.513753 -0.508022,2.928574 -0.501173,4.221743 0.01913,3.6112 1.265277,5.962114 3.877148,7.314393 2.654005,1.374096 6.238551,1.781501 11.013823,1.251787 z"
       id="path4194"
       inkscape:connector-curvature="0" />
  </g>
</svg>

<svg width="64" height="64" viewBox="0 0 64 64" fill="none" xmlns="http://www.w3.org/2000/svg">
<g clip-path="url(#clip0)">
<path d="M0 0.375V13.0937C7.74555 13.1006 15.3874 14.8748 22.3438 18.2812L24.4688 9.9375L31.125 8.53125C21.6199 3.19118 10.9024 0.382656 0 0.375H0ZM38.375 13.3125L36.875 19.375H45.3438C43.1707 17.188 40.8417 15.1619 38.375 13.3125ZM47.5312 21.8125L45.6562 28.5312H36.4688C45.7137 38.0246 50.893 50.7487 50.9062 64H63.625C63.5972 48.4431 57.8719 33.4351 47.5312 21.8125Z" fill="#ABACAE"/>
<path d="M0 21.8125V34.1875C6.09289 34.1971 12.0366 36.0729 17.0312 39.5625L19.7812 28.5312H12.4062L13.6562 24.125C9.26267 22.607 4.6484 21.8256 0 21.8125H0ZM32.3438 37L30.6875 43.5938C30.6254 43.9347 30.5307 44.2941 30.4375 44.6875L30.1562 45.875C30.0941 46.2683 30.0309 46.6642 29.9688 47.0312C29.9066 47.3722 29.875 47.639 29.875 47.875C29.875 48.9238 30.191 49.6892 30.8125 50.1875C31.434 50.6857 32.4768 50.9375 33.9062 50.9375C34.2791 50.9375 34.7219 50.9225 35.2812 50.8435C35.8717 50.7645 36.4721 50.6622 37.0625 50.531C37.684 50.4 38.2844 50.256 38.8438 50.1249C39.1944 50.0259 39.4223 49.9529 39.6875 49.8749C38.0187 45.1834 35.5324 40.8245 32.3438 36.9999V37ZM39.9688 50.6562L37.9062 58.9375C37.3469 59.121 36.6517 59.3164 35.8438 59.5C35.0358 59.6835 34.1508 59.8426 33.1875 60C32.2242 60.1573 31.2128 60.27 30.1562 60.375C29.9571 60.395 29.7605 60.421 29.5625 60.437C29.7169 61.6185 29.8004 62.8081 29.8125 63.9995H42.1875C42.1705 59.4612 41.4213 54.9554 39.9688 50.6558V50.6562Z" fill="#ABACAE"/>
<path d="M8.71875 46.5312C3.89871 46.5312 0 50.4612 0 55.2812C0 60.1014 3.89871 64 8.71875 64C12.7922 64 16.2253 61.2114 17.1875 57.4375C16.376 56.5755 15.7445 55.6033 15.375 54.5C15.0021 53.2938 14.8438 51.9785 14.8438 50.5625C14.8438 50.1518 14.878 49.6613 14.9375 49.125C13.3558 47.5273 11.1446 46.5312 8.71875 46.5312Z" fill="#ABACAE"/>
<path d="M24.7285 61.4198C24.5827 61.3994 24.0229 61.3225 23.4846 61.2487C20.5301 60.8437 17.5675 59.4655 16.2305 57.8741C14.5999 55.9333 13.8974 53.7857 13.8946 50.7332C13.8925 48.5104 14.0413 47.6968 15.6158 41.3199C17.7763 32.5698 18.4971 29.6258 18.4971 29.5522C18.4971 29.5102 16.8465 29.4758 14.829 29.4758C12.8115 29.4758 11.1609 29.4463 11.1609 29.4101C11.1609 29.3739 11.8626 26.888 12.7202 23.8858L14.2796 18.4273H17.7866H21.2936L22.4872 13.7648L23.6807 9.10234L26.3259 8.55257C37.3407 6.26331 41.2596 5.45502 41.2754 5.46918C41.2855 5.47818 40.6791 7.98974 39.928 11.0504C39.1768 14.1111 38.4676 17.0016 38.352 17.4736C38.2363 17.9456 38.1632 18.3533 38.1894 18.3796C38.2157 18.4058 40.7563 18.4273 43.8351 18.4273C46.914 18.4273 49.4327 18.4571 49.4322 18.4936C49.4314 18.5583 48.9939 20.1439 47.2498 26.4044L46.3941 29.4758H40.8477C37.7972 29.4758 35.2818 29.5075 35.2579 29.5461C35.1944 29.6488 31.9095 42.6869 31.4944 44.4835C30.714 47.8617 30.6901 48.6692 31.3508 49.3299C32.3479 50.327 35.4808 50.1073 40.1963 48.7098C40.9254 48.4937 41.5257 48.3236 41.5303 48.3318C41.5349 48.34 40.9053 50.902 40.1312 54.025L38.7238 59.7033L38.0017 59.9224C36.3751 60.416 34.077 60.8784 31.5786 61.2147C30.5183 61.3574 29.619 61.4056 27.6011 61.4279C26.167 61.4437 24.8743 61.4401 24.7285 61.4198V61.4198ZM30.7201 59.3436C32.9128 59.1004 36.0961 58.5188 36.8851 58.2172C37.0885 58.1395 37.1601 57.9045 37.9674 54.6647C38.4429 52.7566 38.8186 51.1821 38.8024 51.1658C38.7861 51.1496 38.1142 51.2709 37.3094 51.4356C35.3264 51.8412 34.2751 51.9581 33.24 51.8884C30.7406 51.7199 29.3625 50.7112 29.0052 48.7887C28.7497 47.4135 28.9545 46.425 31.872 34.9559L33.7494 27.5755L39.3312 27.5527L44.9131 27.53L45.047 27.0666C45.5076 25.473 46.8698 20.5376 46.8698 20.4625C46.8698 20.4015 45.0307 20.3719 41.2512 20.3719C35.9421 20.3719 35.635 20.3633 35.6769 20.2172C35.9541 19.2505 38.6568 8.06355 38.6217 8.02841C38.5828 7.98952 25.2803 10.7132 25.2534 10.7656C25.2488 10.7745 24.6944 12.939 24.0215 15.5758L22.7979 20.3699L19.2568 20.393L15.7156 20.4161L14.7224 23.9074C14.1761 25.8276 13.728 27.4286 13.7266 27.465C13.7252 27.5015 15.3549 27.5313 17.3481 27.5313C19.512 27.5313 20.972 27.5643 20.972 27.6132C20.972 27.6582 19.9756 31.7251 18.7577 36.6509C17.5399 41.5766 16.4475 46.0338 16.3303 46.5557C15.9902 48.0695 15.8223 49.4843 15.8291 50.7775C15.8482 54.3886 17.0944 56.7396 19.7063 58.0918C22.3603 59.4659 25.9448 59.8733 30.7201 59.3436V59.3436Z" fill="#ABACAE"/>
</g>
<defs>
<clipPath id="clip0">
<rect width="64" height="64" fill="white"/>
</clipPath>
</defs>
</svg>
